X: 243
M:3/2
L:1/8
K:Dm
f2d2g2e2f2d2 | g2e4c2efge | f2d2g2e2f3e | d2A4GF EFGE ||
defd efge fgaf | g2e4c2efge | defd efge agfe | d2A4GF EFGE ||

